!!!OTL: Die Koenigskinder Es war einmal eine Graefin,
!!!ARE: Europa, Mitteleuropa, Deutschland (BRD), Baden, Schwetzingen, Altlussheim
!!!YOR: 1, S. 203
!!    18?? aufgezeichnet (Ende des Jh.)
!!!SCT: Q0020E
!!!YEM: Copyright 1995, estate of Helmut Schaffrath.
**kern
*ICvox
*Ivox
*M4/4
*k[f#c#g#]
*A:
{4e
=1
4.cc#
8b
4a
8f#
8f#
=2
4.e
8f#
4e}
{4e
=3
4b
4e
4b
4e
=4
2cc#
4r}
{4e
=5
4.cc#
8cc#
4ee
4ee
=6
2dd
4f#}
{4f#
=7
4e
8e
8e
4cc#
4b
=8
2a
4r}
==
!!!AGN: Ballade, Liebe, Trennung, Tod
!! zweistimmig notiert; Oberstimme = Melodiestimme
!!!ONB: ESAC (Essen Associative Code) Database: BALLADE
!!!AMT: simple quadruple
!!!AIN: vox
!!!EED: Helmut Schaffrath
!!!EEV: 1.0
*-
